icons/git/fork.svg

<svg width="32" height="32" viewBox="0 0 32 32" fill="none" xmlns="http://www.w3.org/2000/svg">
<path fill-rule="evenodd" clip-rule="evenodd" d="M6 6.50002C6 5.1193 7.11929 4.00002 8.5 4.00002C9.88071 4.00002 11 5.1193 11 6.50002C11 7.88073 9.88071 9.00002 8.5 9.00002C7.11929 9.00002 6 7.88073 6 6.50002ZM8.5 2.00002C6.01472 2.00002 4 4.01473 4 6.50002C4 8.6416 5.49601 10.4338 7.5 10.8885V12C7.5 14.7614 9.73858 17 12.5 17H15V21.1115C12.996 21.5663 11.5 23.3584 11.5 25.5C11.5 27.9853 13.5147 30 16 30C18.4853 30 20.5 27.9853 20.5 25.5C20.5 23.3584 19.004 21.5663 17 21.1115V17H19.5C22.2614 17 24.5 14.7614 24.5 12V10.8885C26.504 10.4338 28 8.6416 28 6.50002C28 4.01473 25.9853 2.00002 23.5 2.00002C21.0147 2.00002 19 4.01473 19 6.50002C19 8.6416 20.496 10.4338 22.5 10.8885V12C22.5 13.6569 21.1569 15 19.5 15H12.5C10.8431 15 9.5 13.6569 9.5 12V10.8885C11.504 10.4338 13 8.6416 13 6.50002C13 4.01473 10.9853 2.00002 8.5 2.00002ZM23.5 4.00002C22.1193 4.00002 21 5.1193 21 6.50002C21 7.88073 22.1193 9.00002 23.5 9.00002C24.8807 9.00002 26 7.88073 26 6.50002C26 5.1193 24.8807 4.00002 23.5 4.00002ZM16 23C14.6193 23 13.5 24.1193 13.5 25.5C13.5 26.8807 14.6193 28 16 28C17.3807 28 18.5 26.8807 18.5 25.5C18.5 24.1193 17.3807 23 16 23Z" fill="black"/>
</svg>

<svg width="32" height="32" viewBox="0 0 32 32" xmlns="http://www.w3.org/2000/svg">
    <path fill-rule="evenodd" d="M6 6.5a2.5 2.5 0 115 0 2.5 2.5 0 01-5 0zM8.5 2a4.5 4.5 0 00-1 8.889V12a5 5 0 005 5H15v4.111A4.502 4.502 0 0016 30a4.5 4.5 0 001-8.889V17h2.5a5 5 0 005-5v-1.111A4.502 4.502 0 0023.5 2a4.5 4.5 0 00-1 8.889V12a3 3 0 01-3 3h-7a3 3 0 01-3-3v-1.111A4.502 4.502 0 008.5 2zm15 2a2.5 2.5 0 100 5 2.5 2.5 0 000-5zM16 23a2.5 2.5 0 100 5 2.5 2.5 0 000-5z"/>
</svg>
